apps/scalable/system-switch-user.svg

<svg height="48" width="48" xmlns="http://www.w3.org/2000/svg" xmlns:xlink="http://www.w3.org/1999/xlink"><linearGradient id="a" gradientUnits="userSpaceOnUse" x1="13.594061" x2="12.689428" y1="37.08989" y2="-12.664913"><stop offset="0" stop-color="#566069"/><stop offset="1" stop-color="#6c7884"/></linearGradient><path d="m16.428 15.744c-.159-.052-1.164-.505-.536-2.414h-.009c1.637-1.686 2.888-4.399 2.888-7.07 0-4.107-2.731-6.26-5.905-6.26-3.176 0-5.892 2.152-5.892 6.26 0 2.682 1.244 5.406 2.891 7.088.642 1.684-.506 2.309-.746 2.396-2.2377833.723652-8.32535247 4.33152-8.2290391 9.585718h24.0505821c.107339-5.019251-4.707828-8.278585-8.512543-9.585718zm21.817305-3.079196a25.329718 25.329718 0 0 1 -25.329718 25.329718 25.329718 25.329718 0 0 1 -25.329718-25.329718 25.329718 25.329718 0 0 1 25.329718-25.329718 25.329718 25.329718 0 0 1 25.329718 25.329718z" fill="url(#a)" transform="matrix(.908024294857 0 0 .908024294857 12.272331891738 12.500046429678)"/></svg>

<?xml version="1.0" encoding="UTF-8" standalone="no"?>
<!-- Created with Inkscape (http://www.inkscape.org/) -->

<svg
   xmlns:osb="http://www.openswatchbook.org/uri/2009/osb"
   xmlns:dc="http://purl.org/dc/elements/1.1/"
   xmlns:cc="http://creativecommons.org/ns#"
   xmlns:rdf="http://www.w3.org/1999/02/22-rdf-syntax-ns#"
   xmlns:svg="http://www.w3.org/2000/svg"
   xmlns="http://www.w3.org/2000/svg"
   xmlns:xlink="http://www.w3.org/1999/xlink"
   xmlns:sodipodi="http://sodipodi.sourceforge.net/DTD/sodipodi-0.dtd"
   xmlns:inkscape="http://www.inkscape.org/namespaces/inkscape"
   width="48"
   height="48"
   id="svg5453"
   version="1.1"
   inkscape:version="0.91 r13725"
   sodipodi:docname="system-switch-user.svg">
  <defs
     id="defs5455">
    <linearGradient
       id="linearGradient4207"
       osb:paint="gradient">
      <stop
         style="stop-color:#3498db;stop-opacity:1;"
         offset="0"
         id="stop3371" />
      <stop
         style="stop-color:#3498db;stop-opacity:0;"
         offset="1"
         id="stop3373" />
    </linearGradient>
    <linearGradient
       inkscape:collect="always"
       xlink:href="#linearGradient4227-2"
       id="linearGradient4361"
       x1="13.594061"
       y1="37.08989"
       x2="12.689428"
       y2="-12.664913"
       gradientUnits="userSpaceOnUse" />
    <linearGradient
       id="linearGradient4227-2">
      <stop
         offset="0"
         style="stop-color:#566069;stop-opacity:1"
         id="stop4229-9" />
      <stop
         offset="1"
         style="stop-color:#6c7884;stop-opacity:1"
         id="stop4231-4" />
    </linearGradient>
  </defs>
  <sodipodi:namedview
     id="base"
     pagecolor="#676767"
     bordercolor="#666666"
     borderopacity="1.0"
     inkscape:pageopacity="0"
     inkscape:pageshadow="2"
     inkscape:zoom="5.6568543"
     inkscape:cx="-33.754093"
     inkscape:cy="24.224855"
     inkscape:document-units="px"
     inkscape:current-layer="layer1"
     showgrid="false"
     fit-margin-top="0"
     fit-margin-left="0"
     fit-margin-right="0"
     fit-margin-bottom="0"
     inkscape:window-width="1366"
     inkscape:window-height="630"
     inkscape:window-x="0"
     inkscape:window-y="36"
     inkscape:window-maximized="1"
     inkscape:showpageshadow="false"
     borderlayer="true"
     showguides="false"
     inkscape:snap-bbox="true"
     inkscape:snap-global="true">
    <inkscape:grid
       type="xygrid"
       id="grid4063" />
    <sodipodi:guide
       position="1.1650391e-05,32.000026"
       orientation="32,0"
       id="guide4157" />
    <sodipodi:guide
       position="1.1650391e-05,2.6367188e-05"
       orientation="0,32"
       id="guide4159" />
    <sodipodi:guide
       position="32.000012,2.6367188e-05"
       orientation="-32,0"
       id="guide4161" />
    <sodipodi:guide
       position="32.000012,32.000026"
       orientation="0,-32"
       id="guide4163" />
    <sodipodi:guide
       position="2.0000117,30.000026"
       orientation="28,0"
       id="guide4167" />
    <sodipodi:guide
       position="2.0000117,2.0000264"
       orientation="0,28"
       id="guide4169" />
    <sodipodi:guide
       position="30.000012,2.0000264"
       orientation="-28,0"
       id="guide4171" />
    <sodipodi:guide
       position="30.000012,30.000026"
       orientation="0,-28"
       id="guide4173" />
    <sodipodi:guide
       position="2.0000117,30.000026"
       orientation="28,0"
       id="guide4181" />
    <sodipodi:guide
       position="2.0000117,2.0000264"
       orientation="0,14"
       id="guide4183" />
    <sodipodi:guide
       position="16.000012,2.0000264"
       orientation="-28,0"
       id="guide4185" />
    <sodipodi:guide
       position="16.000012,30.000026"
       orientation="0,-14"
       id="guide4187" />
    <sodipodi:guide
       position="9.0000117,23.000026"
       orientation="14,0"
       id="guide4193" />
    <sodipodi:guide
       position="9.0000117,9.0000264"
       orientation="0,14.000031"
       id="guide4195" />
    <sodipodi:guide
       position="23.000042,9.0000264"
       orientation="-14,0"
       id="guide4197" />
    <sodipodi:guide
       position="23.000042,23.000026"
       orientation="0,-14.000031"
       id="guide4199" />
  </sodipodi:namedview>
  <metadata
     id="metadata5458">
    <rdf:RDF>
      <cc:Work
         rdf:about="">
        <dc:format>image/svg+xml</dc:format>
        <dc:type
           rdf:resource="http://purl.org/dc/dcmitype/StillImage" />
        <dc:title />
      </cc:Work>
    </rdf:RDF>
  </metadata>
  <g
     inkscape:label="Layer 1"
     inkscape:groupmode="layer"
     id="layer1"
     transform="translate(-384.57143,-499.798)">
    <g
       transform="matrix(1.4375,0,0,1.4375,-212.01788,-249.2761)"
       id="layer1-66"
       inkscape:label="Layer 1"
       inkscape:transform-center-x="12.784759"
       inkscape:transform-center-y="-5.7656878"
       style="fill:#ffffff;fill-opacity:1">
      <g
         transform="translate(-13.590024,0.19200644)"
         inkscape:label="Layer 1"
         id="layer1-0"
         style="fill:#ffffff;fill-opacity:1">
        <g
           style="fill:#ffffff;fill-opacity:1"
           inkscape:label="Layer 1"
           id="layer1-19"
           transform="translate(13.590024,-0.19200637)">
          <g
             id="layer1-99"
             inkscape:label="Layer 1"
             style="fill:#ffffff;fill-opacity:1">
            <g
               style="fill:#ffffff;fill-opacity:1"
               inkscape:label="Layer 1"
               id="layer1-09">
              <g
                 id="layer1-02"
                 inkscape:label="Layer 1"
                 style="fill:#ffffff;fill-opacity:1">
                <g
                   style="fill:#ffffff;fill-opacity:1"
                   inkscape:label="Layer 1"
                   id="layer1-8">
                  <g
                     id="layer1-23"
                     inkscape:label="Layer 1"
                     style="fill:#ffffff;fill-opacity:1">
                    <g
                       inkscape:label="Layer 1"
                       id="layer1-41"
                       transform="matrix(1.3749999,0,0,1.3749999,-31.660676,-212.08226)"
                       style="fill:#ffffff;fill-opacity:1">
                      <g
                         id="g4200"
                         transform="matrix(0.72727276,0,0,0.72727276,91.181807,149.4624)"
                         style="fill:#ffffff;fill-opacity:1">
                        <g
                           style="fill:#ffffff;fill-opacity:1"
                           inkscape:label="Layer 1"
                           id="layer1-0-4"
                           transform="translate(-93.71429,6.57149)">
                          <g
                             style="fill:#ffffff;fill-opacity:1"
                             transform="translate(66.865682,-5.2352774)"
                             id="layer1-2-3"
                             inkscape:label="Layer 1">
                            <g
                               style="fill:#ffffff;fill-opacity:1"
                               transform="translate(155.52378,20.303015)"
                               id="g4429">
                              <g
                                 style="fill:#ffffff;fill-opacity:1"
                                 transform="matrix(0.89462947,0,0,0.89462947,18.387158,56.063361)"
                                 id="g4453">
                                <g
                                   style="fill:#ffffff;fill-opacity:1"
                                   id="g3-7"
                                   transform="matrix(0.31093319,0,0,0.31093319,196.13009,524.49874)">
                                <g
                                   style="fill:#ffffff;fill-opacity:1"
                                   id="g5-4"
                                   transform="matrix(2.2708024,0,0,2.2708024,26.298832,-38.007041)">
                                <path
                                   id="path7-1"
                                   style="fill:url(#linearGradient4361);fill-opacity:1.0"
                                   d="M 16.428,15.744 C 16.269,15.692 15.264,15.239 15.892,13.33 l -0.009,0 C 17.52,11.644 18.771,8.931 18.771,6.26 18.771,2.153 16.04,0 12.866,0 9.69,0 6.974,2.152 6.974,6.26 c 0,2.682 1.244,5.406 2.891,7.088 0.642,1.684 -0.506,2.309 -0.746,2.396 -2.2377833,0.723652 -8.32535247,4.33152 -8.2290391,9.585718 l 24.0505821,0 C 25.047882,20.310467 20.232715,17.051133 16.428,15.744 Z M 38.245305,12.664804 A 25.329718,25.329718 0 0 1 12.915587,37.994522 25.329718,25.329718 0 0 1 -12.414131,12.664804 25.329718,25.329718 0 0 1 12.915587,-12.664914 25.329718,25.329718 0 0 1 38.245305,12.664804 Z"
                                   inkscape:connector-curvature="0" />
                                </g>
                                </g>
                              </g>
                            </g>
                          </g>
                        </g>
                      </g>
                    </g>
                  </g>
                </g>
              </g>
            </g>
          </g>
        </g>
      </g>
    </g>
  </g>
</svg>
